X:1
T:大提琴练习曲_Book1_P26_No.33
T:大提琴练习曲_Book1_P26_No.33
L:1/8
Q:1/4=80
M:4/4
K:C
V:1 bass nm="大提琴" snm="Vc."
V:1
 ((C,/B,,/C,/B,,/ C,/B,,/C,/B,,/) (C,/B,,/C,/B,,/ C,/B,,/A,,/G,,/)) | %1
 (C,/B,,/C,/B,,/ C,/B,,/C,/B,,/ C,/B,,/C,/B,,/ C,/B,,/A,,/G,,/) | %2
 (G,/^F,/G,/F,/ G,/F,/G,/F,/ G,/F,/G,/F,/ G,/=F,/E,/D,/) | %3
 (G,/^F,/G,/F,/ G,/F,/G,/F,/ G,/F,/G,/F,/ G,/=F,/E,/D,/) | %4
 (E,/G,/E,/G,/ E,/G,/E,/G,/ E,/G,/E,/G,/ E,/G,/F,/E,/) | %5
 (E,/F,/E,/F,/ E,/F,/E,/F,/ E,/F,/E,/F,/ E,/F,/E,/D,/) | %6
 (E,/G,/^F,/G,/ E,/G,/F,/G,/ E,/G,/F,/G,/ E,/G,/F,/E,/) | %7
 (^F,/C/B,/C/ A,/C/B,/C/ A,/C/B,/C/ D/C/B,/A,/) | (G,/B,/C/B,/ C/B,/C/B,/ D/B,/C/B,/ C/B,/C/B,/) | %9
 (D,/B,/C/B,/ C/B,/C/B,/ D/B,/C/B,/ C/B,/C/B,/) | (A,/C/B,/C/ B,/C/B,/C/ D/C/D/C/ D/C/D/C/) | %11
 (D,/C/B,/C/ B,/C/B,/C/ D/^C/D/=C/ B,/A,/G,/^F,/) | %12
 (G,/D,/E,/^F,/ G,/B,/C/^C/ D/C/D/=C/ B,/A,/G,/F,/) | %13
 (G,/D,/E,/^F,/ G,/B,/C/^C/ D/C/D/=C/ B,/A,/G,/F,/) | %14
 (G,/B,/D/C/ B,/A,/G,/^F,/ =F,/B,/D/C/ B,/A,/G,/F,/) | %15
 (E,/G,/C/B,/ A,/G,/F,/E,/ D,/F,/B,/A,/ G,/F,/E,/D,/) | %16
 (C,/G,,/A,,/B,,/ C,/G,,/A,,/B,,/ C,/G,,/A,,/B,,/ C,/B,,/A,,/G,,/) | %17
 (C,/G,,/A,,/B,,/ C,/G,,/A,,/B,,/ C,/G,,/A,,/B,,/ C,/D,/E,/F,/) | %18
 (G,/D,/E,/^F,/ G,/D,/E,/F,/ G,/D,/E,/F,/ G,/F,/E,/D,/) | %19
 (G,/D,/E,/^F,/ G,/D,/E,/F,/ G,/D,/E,/F,/ G,/=F,/E,/D,/) | %20
 (C,/E,/G,/E,/ F,/E,/G,/E,/ C,/E,/G,/E,/ F,/E,/G,/E,/) | %21
 (_B,,/E,/G,/E,/ F,/E,/G,/E,/ B,,/E,/G,/F,/ D,/D,/C,/B,,/) | %22
 (A,,/C,,/D,,/E,,/ F,,/G,,/A,,/_B,,/ C,/A,,/B,,/C,/ D,/E,/F,/G,/) | %23
 (A,/C/B,/C/ D/C/B,/C/ A,/C/B,/C/ D/C/_B,/A,/) | %24
 (G,/E,/F,/E,/ G,/_B,/C/B,/ G,/E,/F,/^F,/ G,/E,/C,/_B,,/) | %25
 (A,,/C,/B,,/C,/ F,/C,/_B,,/A,,/ G,,/C,/A,,/B,,/ E,/B,,/A,,/G,,/) | %26
 (F,,/E,,/F,,/E,,/ F,,/E,,/F,,/E,,/ F,,/E,,/F,,/E,,/ F,,/E,,/D,,/C,,/) | %27
 (F,,/E,,/F,,/E,,/ F,,/E,,/F,,/E,,/ F,,/E,,/F,,/E,,/ F,,/E,,/D,,/C,,/) | %28
 (C,/B,,/C,/B,,/ C,/B,,/C,/B,,/ C,/B,,/C,/B,,/ C,/_B,,/A,,/G,,/) | %29
 (C,/B,,/C,/B,,/ C,/B,,/C,/B,,/ C,/B,,/C,/B,,/ C,/_B,,/A,,/G,,/) | %30
 (A,,/C,/_B,,/C,/ A,,/C,/B,,/C,/ A,,/C,/B,,/C,/ A,,/C,/B,,/A,,/) | %31
 (G,,/_B,,/A,,/B,,/ G,,/B,,/A,,/B,,/ G,,/B,,/A,,/B,,/ G,,/B,,/A,,/G,,/) | %32
 (A,,/C,/B,,/C,/ A,,/C,/B,,/C,/ A,,/C,/B,,/C,/ G,,/C,/B,,/A,,/) | %33
 (B,,/F,/E,/F,/ D,/F,/E,/F,/ D,/F,/E,/F,/ G,/F,/E,/D,/) | %34
 (^C,/B,,/A,,/B,,/ C,/D,/E,/!2!F,/ G,/F,/E,/F,/ G,/A,/_B,/A,/) | %35
 (!3!^C/_B,/A,/!4!^G,/ =G,/F,/E,/F,/ G,/F,/E,/D,/ !4!^C,/!2!B,,/C,/A,,/) | %36
 (D,/F,/E,/F,/ D,/F,/E,/F,/ D,/F,/E,/F,/ G,/F,/E,/D,/) | %37
 (E,/G,/^F,/G,/ E,/G,/F,/G,/ E,/G,/F,/G,/ C/_B,/A,/G,/) | %38
 (F,/A,/C/B,/ D/C/A,/G,/ F,/A,/C/B,/ D/C/A,/G,/) | %39
 (^F,/A,/C/B,/ D/C/A,/G,/ F,/A,/C/B,/ D/C/A,/F,/) | %40
 (G,/B,/C/B,/ D/B,/C/B,/ D,/B,/C/B,/ D/B,/C/B,/) | (A,/C/B,/C/ D/C/B,/C/ D,/C/B,/C/ D/C/B,/A,/) | %42
 (G,/^F,/G,/F,/ G,/F,/G,/F,/ G,/F,/G,/F,/ G,/F,/E,/D,/) | %43
 (G,/^F,/G,/F,/ G,/F,/G,/F,/ G,/F,/G,/F,/ G,/F,/E,/D,/) | %44
 (D/^C/D/C/ D/C/D/C/ D/C/D/C/ D/=C/B,/A,/) | (D/^C/D/C/ D/C/D/C/ D/C/D/C/ D/=C/B,/A,/) | %46
 (B,/D/C/D/ B,/D/C/D/ B,/D/C/D/ B,/D/C/B,/) | (A,/C/B,/C/ A,/C/B,/C/ A,/C/B,/C/ D/C/B,/A,/) | %48
 (B,/D/^C/D/ B,/D/C/D/ B,/D/C/D/ B,/D/=C/B,/) | (A,/C/B,/C/ A,/C/B,/C/ A,/C/B,/C/ D/C/B,/A,/) | %50
 (G,/D,/E,/^F,/ G,/A,/B,/C/ D/^C/D/C/ D/=C/B,/A,/) | %51
 (G,/D,/E,/^F,/ G,/A,/B,/C/ D/^C/D/C/ D/=C/B,/A,/) | %52
 (G,/B,/D/C/ B,/A,/G,/^F,/ =F,/B,/D/C/ B,/A,/G,/F,/) | %53
 (E,/G,/C/B,/ A,/G,/F,/E,/ D,/F,/B,/A,/ G,/F,/E,/D,/) | %54
 (C,/B,,/C,/B,,/ C,/B,,/C,/B,,/ C,/B,,/C,/B,,/ C,/B,,/A,,/G,,/) | %55
 (G,/^F,/G,/F,/ G,/F,/G,/F,/ G,/F,/G,/F,/ G,/=F,/E,/D,/) | %56
 (C/B,/C/B,/ A,/G,/F,/E,/ F,/E,/D,/E,/ F,/G,/A,/B,/) | %57
 (C/B,/C/B,/ A,/G,/F,/E,/ F,/E,/D,/E,/ F,/G,/A,/B,/) | C2 z2 v[C,,G,,]2 [C,,G,,]2 | [C,,G,,]8 |] %60

